images/3233172.svg

<?xml version="1.0" encoding="UTF-8"?>
<svg xmlns="http://www.w3.org/2000/svg" xmlns:xlink="http://www.w3.org/1999/xlink" width="300pt" height="300pt" viewBox="0 0 300 300" version="1.1">
<defs>
<g>
<symbol overflow="visible" id="glyph0-0">
<path style="stroke:none;" d="M 0.453125 1.59375 L 0.453125 -6.34375 L 4.953125 -6.34375 L 4.953125 1.59375 Z M 0.953125 1.09375 L 4.453125 1.09375 L 4.453125 -5.84375 L 0.953125 -5.84375 Z M 0.953125 1.09375 "/>
</symbol>
<symbol overflow="visible" id="glyph0-1">
<path style="stroke:none;" d="M 0.890625 -6.5625 L 2.078125 -6.5625 L 4.984375 -1.078125 L 4.984375 -6.5625 L 5.84375 -6.5625 L 5.84375 0 L 4.65625 0 L 1.75 -5.484375 L 1.75 0 L 0.890625 0 Z M 0.890625 -6.5625 "/>
</symbol>
<symbol overflow="visible" id="glyph0-2">
<path style="stroke:none;" d="M 3.546875 -5.953125 C 2.898438 -5.953125 2.382812 -5.710938 2 -5.234375 C 1.625 -4.753906 1.4375 -4.101562 1.4375 -3.28125 C 1.4375 -2.445312 1.625 -1.789062 2 -1.3125 C 2.382812 -0.832031 2.898438 -0.59375 3.546875 -0.59375 C 4.191406 -0.59375 4.703125 -0.832031 5.078125 -1.3125 C 5.453125 -1.789062 5.640625 -2.445312 5.640625 -3.28125 C 5.640625 -4.101562 5.453125 -4.753906 5.078125 -5.234375 C 4.703125 -5.710938 4.191406 -5.953125 3.546875 -5.953125 Z M 3.546875 -6.6875 C 4.460938 -6.6875 5.195312 -6.375 5.75 -5.75 C 6.300781 -5.132812 6.578125 -4.3125 6.578125 -3.28125 C 6.578125 -2.238281 6.300781 -1.410156 5.75 -0.796875 C 5.195312 -0.179688 4.460938 0.125 3.546875 0.125 C 2.617188 0.125 1.878906 -0.179688 1.328125 -0.796875 C 0.773438 -1.410156 0.5 -2.238281 0.5 -3.28125 C 0.5 -4.3125 0.773438 -5.132812 1.328125 -5.75 C 1.878906 -6.375 2.617188 -6.6875 3.546875 -6.6875 Z M 3.546875 -6.6875 "/>
</symbol>
<symbol overflow="visible" id="glyph0-3">
<path style="stroke:none;" d="M 0.890625 -6.5625 L 1.765625 -6.5625 L 1.765625 -3.875 L 5 -3.875 L 5 -6.5625 L 5.890625 -6.5625 L 5.890625 0 L 5 0 L 5 -3.125 L 1.765625 -3.125 L 1.765625 0 L 0.890625 0 Z M 0.890625 -6.5625 "/>
</symbol>
<symbol overflow="visible" id="glyph0-4">
<path style="stroke:none;" d="M 0.890625 -6.5625 L 4.65625 -6.5625 L 4.65625 -5.8125 L 1.765625 -5.8125 L 1.765625 -3.875 L 4.375 -3.875 L 4.375 -3.140625 L 1.765625 -3.140625 L 1.765625 0 L 0.890625 0 Z M 0.890625 -6.5625 "/>
</symbol>
</g>
</defs>
<g id="surface46557">
<rect x="0" y="0" width="300" height="300" style="fill:rgb(100%,100%,100%);fill-opacity:1;stroke:none;"/>
<path style="fill:none;stroke-width:1.2;stroke-linecap:butt;stroke-linejoin:miter;stroke:rgb(0%,0%,0%);stroke-opacity:1;stroke-miterlimit:10;" d="M 184.71875 220.257812 L 161.210938 220.777344 "/>
<path style="fill:none;stroke-width:1.2;stroke-linecap:butt;stroke-linejoin:miter;stroke:rgb(0%,0%,0%);stroke-opacity:1;stroke-miterlimit:10;" d="M 196.023438 199.632812 L 184.71875 220.257812 "/>
<path style="fill:none;stroke-width:1;stroke-linecap:butt;stroke-linejoin:miter;stroke:rgb(0%,0%,0%);stroke-opacity:1;stroke-miterlimit:10;" d="M 149 200.675781 L 149 200.675781 M 150.089844 203.472656 L 150.980469 202.933594 M 151.175781 206.269531 L 152.960938 205.1875 M 152.265625 209.066406 L 154.9375 207.441406 M 153.355469 211.859375 L 156.917969 209.695312 M 154.441406 214.65625 L 158.898438 211.949219 M 155.53125 217.453125 L 160.875 214.203125 M 156.617188 220.246094 L 162.855469 216.460938 M 157.660156 222.933594 L 164.757812 218.625 "/>
<path style="fill:none;stroke-width:1.2;stroke-linecap:butt;stroke-linejoin:miter;stroke:rgb(0%,0%,0%);stroke-opacity:1;stroke-miterlimit:10;" d="M 149 200.675781 L 135.605469 220.003906 "/>
<path style="fill:none;stroke-width:1.2;stroke-linecap:butt;stroke-linejoin:miter;stroke:rgb(0%,0%,0%);stroke-opacity:1;stroke-miterlimit:10;" d="M 149 200.675781 L 160.304688 180.054688 "/>
<path style="fill:none;stroke-width:1.2;stroke-linecap:butt;stroke-linejoin:miter;stroke:rgb(0%,0%,0%);stroke-opacity:1;stroke-miterlimit:10;" d="M 134.761719 181.964844 L 149 200.675781 "/>
<path style="fill:none;stroke-width:1.2;stroke-linecap:butt;stroke-linejoin:miter;stroke:rgb(0%,0%,0%);stroke-opacity:1;stroke-miterlimit:10;" d="M 135.605469 220.003906 L 113.082031 213.234375 "/>
<path style="fill:none;stroke-width:1.2;stroke-linecap:butt;stroke-linejoin:miter;stroke:rgb(0%,0%,0%);stroke-opacity:1;stroke-miterlimit:10;" d="M 113.082031 213.234375 L 112.820312 201.480469 "/>
<path style="fill:none;stroke-width:1.2;stroke-linecap:butt;stroke-linejoin:miter;stroke:rgb(0%,0%,100%);stroke-opacity:1;stroke-miterlimit:10;" d="M 112.820312 201.480469 L 112.5625 189.726562 "/>
<path style="fill:none;stroke-width:1.2;stroke-linecap:butt;stroke-linejoin:miter;stroke:rgb(0%,0%,100%);stroke-opacity:1;stroke-miterlimit:10;" d="M 112.5625 189.726562 L 123.660156 185.84375 "/>
<path style="fill:none;stroke-width:1.2;stroke-linecap:butt;stroke-linejoin:miter;stroke:rgb(0%,0%,0%);stroke-opacity:1;stroke-miterlimit:10;" d="M 123.660156 185.84375 L 134.761719 181.964844 "/>
<path style="fill:none;stroke-width:1.2;stroke-linecap:butt;stroke-linejoin:miter;stroke:rgb(0%,0%,100%);stroke-opacity:1;stroke-miterlimit:10;" d="M 112.5625 189.726562 L 102.898438 183.027344 "/>
<path style="fill:none;stroke-width:1.2;stroke-linecap:butt;stroke-linejoin:miter;stroke:rgb(0%,0%,0%);stroke-opacity:1;stroke-miterlimit:10;" d="M 102.898438 183.027344 L 93.234375 176.328125 "/>
<path style=" stroke:none;fill-rule:nonzero;fill:rgb(100%,100%,100%);fill-opacity:1;" d="M 109.5625 184.226562 L 116.5625 184.226562 L 116.5625 195.226562 L 109.5625 195.226562 Z M 109.5625 184.226562 "/>
<g style="fill:rgb(0%,0%,100%);fill-opacity:1;">
  <use xlink:href="#glyph0-1" x="109.5625" y="192.889648"/>
</g>
<path style="fill:none;stroke-width:1.2;stroke-linecap:butt;stroke-linejoin:miter;stroke:rgb(0%,0%,0%);stroke-opacity:1;stroke-miterlimit:10;" d="M 92.050781 173.824219 L 81.417969 178.84375 "/>
<path style="fill:none;stroke-width:1.2;stroke-linecap:butt;stroke-linejoin:miter;stroke:rgb(100%,0%,0%);stroke-opacity:1;stroke-miterlimit:10;" d="M 81.417969 178.84375 L 70.785156 183.867188 "/>
<path style="fill:none;stroke-width:1.2;stroke-linecap:butt;stroke-linejoin:miter;stroke:rgb(0%,0%,0%);stroke-opacity:1;stroke-miterlimit:10;" d="M 94.414062 178.828125 L 83.78125 183.847656 "/>
<path style="fill:none;stroke-width:1.2;stroke-linecap:butt;stroke-linejoin:miter;stroke:rgb(100%,0%,0%);stroke-opacity:1;stroke-miterlimit:10;" d="M 83.78125 183.847656 L 73.148438 188.867188 "/>
<path style="fill:none;stroke-width:1.2;stroke-linecap:butt;stroke-linejoin:miter;stroke:rgb(0%,0%,0%);stroke-opacity:1;stroke-miterlimit:10;" d="M 93.234375 176.328125 L 94.203125 164.609375 "/>
<path style="fill:none;stroke-width:1.2;stroke-linecap:butt;stroke-linejoin:miter;stroke:rgb(0%,0%,100%);stroke-opacity:1;stroke-miterlimit:10;" d="M 94.203125 164.609375 L 95.171875 152.890625 "/>
<path style=" stroke:none;fill-rule:nonzero;fill:rgb(100%,100%,100%);fill-opacity:1;" d="M 63.964844 180.867188 L 71.964844 180.867188 L 71.964844 191.867188 L 63.964844 191.867188 Z M 63.964844 180.867188 "/>
<g style="fill:rgb(100%,0%,0%);fill-opacity:1;">
  <use xlink:href="#glyph0-2" x="63.964844" y="189.530273"/>
</g>
<path style="fill:none;stroke-width:1.2;stroke-linecap:butt;stroke-linejoin:miter;stroke:rgb(0%,0%,100%);stroke-opacity:1;stroke-miterlimit:10;" d="M 95.171875 152.890625 L 85.507812 146.191406 "/>
<path style="fill:none;stroke-width:1.2;stroke-linecap:butt;stroke-linejoin:miter;stroke:rgb(0%,0%,0%);stroke-opacity:1;stroke-miterlimit:10;" d="M 85.507812 146.191406 L 75.84375 139.492188 "/>
<path style=" stroke:none;fill-rule:nonzero;fill:rgb(100%,100%,100%);fill-opacity:1;" d="M 88.171875 147.390625 L 102.171875 147.390625 L 102.171875 158.390625 L 88.171875 158.390625 Z M 88.171875 147.390625 "/>
<g style="fill:rgb(0%,0%,100%);fill-opacity:1;">
  <use xlink:href="#glyph0-1" x="88.171875" y="156.053711"/>
  <use xlink:href="#glyph0-3" x="95.149414" y="156.053711"/>
</g>
<path style="fill:none;stroke-width:1.2;stroke-linecap:butt;stroke-linejoin:miter;stroke:rgb(0%,0%,0%);stroke-opacity:1;stroke-miterlimit:10;" d="M 75.84375 139.492188 L 77.78125 116.054688 "/>
<path style="fill:none;stroke-width:1.2;stroke-linecap:butt;stroke-linejoin:miter;stroke:rgb(0%,0%,0%);stroke-opacity:1;stroke-miterlimit:10;" d="M 70.523438 136.695312 L 72.074219 117.945312 "/>
<path style="fill:none;stroke-width:1.2;stroke-linecap:butt;stroke-linejoin:miter;stroke:rgb(0%,0%,0%);stroke-opacity:1;stroke-miterlimit:10;" d="M 54.578125 149.53125 L 75.84375 139.492188 "/>
<path style="fill:none;stroke-width:1.2;stroke-linecap:butt;stroke-linejoin:miter;stroke:rgb(0%,0%,0%);stroke-opacity:1;stroke-miterlimit:10;" d="M 77.78125 116.054688 L 58.453125 102.660156 "/>
<path style="fill:none;stroke-width:1.2;stroke-linecap:butt;stroke-linejoin:miter;stroke:rgb(0%,0%,0%);stroke-opacity:1;stroke-miterlimit:10;" d="M 58.453125 102.660156 L 37.1875 112.699219 "/>
<path style="fill:none;stroke-width:1.2;stroke-linecap:butt;stroke-linejoin:miter;stroke:rgb(0%,0%,0%);stroke-opacity:1;stroke-miterlimit:10;" d="M 58.691406 108.667969 L 41.675781 116.699219 "/>
<path style="fill:none;stroke-width:1.2;stroke-linecap:butt;stroke-linejoin:miter;stroke:rgb(0%,0%,0%);stroke-opacity:1;stroke-miterlimit:10;" d="M 58.453125 102.660156 L 59.425781 90.941406 "/>
<path style="fill:none;stroke-width:1.2;stroke-linecap:butt;stroke-linejoin:miter;stroke:rgb(20%,80%,80%);stroke-opacity:1;stroke-miterlimit:10;" d="M 59.425781 90.941406 L 60.394531 79.222656 "/>
<path style="fill:none;stroke-width:1.2;stroke-linecap:butt;stroke-linejoin:miter;stroke:rgb(0%,0%,0%);stroke-opacity:1;stroke-miterlimit:10;" d="M 37.1875 112.699219 L 35.25 136.136719 "/>
<path style="fill:none;stroke-width:1.2;stroke-linecap:butt;stroke-linejoin:miter;stroke:rgb(0%,0%,0%);stroke-opacity:1;stroke-miterlimit:10;" d="M 35.25 136.136719 L 54.578125 149.53125 "/>
<path style="fill:none;stroke-width:1.2;stroke-linecap:butt;stroke-linejoin:miter;stroke:rgb(0%,0%,0%);stroke-opacity:1;stroke-miterlimit:10;" d="M 40.335938 132.925781 L 55.796875 143.644531 "/>
<path style=" stroke:none;fill-rule:nonzero;fill:rgb(100%,100%,100%);fill-opacity:1;" d="M 57.394531 73.722656 L 63.394531 73.722656 L 63.394531 84.722656 L 57.394531 84.722656 Z M 57.394531 73.722656 "/>
<g style="fill:rgb(20%,80%,80%);fill-opacity:1;">
  <use xlink:href="#glyph0-4" x="57.394531" y="82.385742"/>
</g>
<path style="fill:none;stroke-width:1.2;stroke-linecap:butt;stroke-linejoin:miter;stroke:rgb(0%,0%,0%);stroke-opacity:1;stroke-miterlimit:10;" d="M 160.304688 180.054688 L 172.0625 179.792969 "/>
<path style="fill:none;stroke-width:1.2;stroke-linecap:butt;stroke-linejoin:miter;stroke:rgb(0%,0%,100%);stroke-opacity:1;stroke-miterlimit:10;" d="M 172.0625 179.792969 L 183.816406 179.535156 "/>
<path style="fill:none;stroke-width:1.2;stroke-linecap:butt;stroke-linejoin:miter;stroke:rgb(0%,0%,100%);stroke-opacity:1;stroke-miterlimit:10;" d="M 183.816406 179.535156 L 189.921875 189.582031 "/>
<path style="fill:none;stroke-width:1.2;stroke-linecap:butt;stroke-linejoin:miter;stroke:rgb(0%,0%,0%);stroke-opacity:1;stroke-miterlimit:10;" d="M 189.921875 189.582031 L 196.023438 199.632812 "/>
<path style="fill:none;stroke-width:1.2;stroke-linecap:butt;stroke-linejoin:miter;stroke:rgb(0%,0%,100%);stroke-opacity:1;stroke-miterlimit:10;" d="M 183.816406 179.535156 L 189.46875 169.222656 "/>
<path style="fill:none;stroke-width:1.2;stroke-linecap:butt;stroke-linejoin:miter;stroke:rgb(0%,0%,0%);stroke-opacity:1;stroke-miterlimit:10;" d="M 189.46875 169.222656 L 195.121094 158.910156 "/>
<path style=" stroke:none;fill-rule:nonzero;fill:rgb(100%,100%,100%);fill-opacity:1;" d="M 180.816406 174.035156 L 187.816406 174.035156 L 187.816406 185.035156 L 180.816406 185.035156 Z M 180.816406 174.035156 "/>
<g style="fill:rgb(0%,0%,100%);fill-opacity:1;">
  <use xlink:href="#glyph0-1" x="180.816406" y="182.698242"/>
</g>
<path style="fill:none;stroke-width:1.2;stroke-linecap:butt;stroke-linejoin:miter;stroke:rgb(0%,0%,0%);stroke-opacity:1;stroke-miterlimit:10;" d="M 197.484375 157.476562 L 191.382812 147.425781 "/>
<path style="fill:none;stroke-width:1.2;stroke-linecap:butt;stroke-linejoin:miter;stroke:rgb(100%,0%,0%);stroke-opacity:1;stroke-miterlimit:10;" d="M 191.382812 147.425781 L 185.277344 137.375 "/>
<path style="fill:none;stroke-width:1.2;stroke-linecap:butt;stroke-linejoin:miter;stroke:rgb(0%,0%,0%);stroke-opacity:1;stroke-miterlimit:10;" d="M 192.753906 160.347656 L 186.652344 150.296875 "/>
<path style="fill:none;stroke-width:1.2;stroke-linecap:butt;stroke-linejoin:miter;stroke:rgb(100%,0%,0%);stroke-opacity:1;stroke-miterlimit:10;" d="M 186.652344 150.296875 L 180.546875 140.246094 "/>
<path style="fill:none;stroke-width:1.2;stroke-linecap:butt;stroke-linejoin:miter;stroke:rgb(0%,0%,0%);stroke-opacity:1;stroke-miterlimit:10;" d="M 195.121094 158.910156 L 206.875 158.652344 "/>
<path style="fill:none;stroke-width:1.2;stroke-linecap:butt;stroke-linejoin:miter;stroke:rgb(100%,0%,0%);stroke-opacity:1;stroke-miterlimit:10;" d="M 206.875 158.652344 L 218.632812 158.390625 "/>
<path style=" stroke:none;fill-rule:nonzero;fill:rgb(100%,100%,100%);fill-opacity:1;" d="M 174.914062 133.3125 L 182.914062 133.3125 L 182.914062 144.3125 L 174.914062 144.3125 Z M 174.914062 133.3125 "/>
<g style="fill:rgb(100%,0%,0%);fill-opacity:1;">
  <use xlink:href="#glyph0-2" x="174.914062" y="141.975586"/>
</g>
<path style="fill:none;stroke-width:1.2;stroke-linecap:butt;stroke-linejoin:miter;stroke:rgb(100%,0%,0%);stroke-opacity:1;stroke-miterlimit:10;" d="M 218.632812 158.390625 L 224.285156 148.078125 "/>
<path style="fill:none;stroke-width:1.2;stroke-linecap:butt;stroke-linejoin:miter;stroke:rgb(0%,0%,0%);stroke-opacity:1;stroke-miterlimit:10;" d="M 224.285156 148.078125 L 229.933594 137.765625 "/>
<path style=" stroke:none;fill-rule:nonzero;fill:rgb(100%,100%,100%);fill-opacity:1;" d="M 214.632812 152.890625 L 222.632812 152.890625 L 222.632812 163.890625 L 214.632812 163.890625 Z M 214.632812 152.890625 "/>
<g style="fill:rgb(100%,0%,0%);fill-opacity:1;">
  <use xlink:href="#glyph0-2" x="214.632812" y="161.553711"/>
</g>
<path style="fill:none;stroke-width:1.2;stroke-linecap:butt;stroke-linejoin:miter;stroke:rgb(0%,0%,0%);stroke-opacity:1;stroke-miterlimit:10;" d="M 229.933594 137.765625 L 253.445312 137.246094 "/>
<path style="fill:none;stroke-width:1.2;stroke-linecap:butt;stroke-linejoin:miter;stroke:rgb(0%,0%,0%);stroke-opacity:1;stroke-miterlimit:10;" d="M 232.164062 132.183594 L 250.972656 131.765625 "/>
<path style="fill:none;stroke-width:1.2;stroke-linecap:butt;stroke-linejoin:miter;stroke:rgb(0%,0%,0%);stroke-opacity:1;stroke-miterlimit:10;" d="M 217.726562 117.667969 L 229.933594 137.765625 "/>
<path style="fill:none;stroke-width:1.2;stroke-linecap:butt;stroke-linejoin:miter;stroke:rgb(0%,0%,0%);stroke-opacity:1;stroke-miterlimit:10;" d="M 253.445312 137.246094 L 264.75 116.625 "/>
<path style="fill:none;stroke-width:1.2;stroke-linecap:butt;stroke-linejoin:miter;stroke:rgb(0%,0%,0%);stroke-opacity:1;stroke-miterlimit:10;" d="M 264.75 116.625 L 252.542969 96.523438 "/>
<path style="fill:none;stroke-width:1.2;stroke-linecap:butt;stroke-linejoin:miter;stroke:rgb(0%,0%,0%);stroke-opacity:1;stroke-miterlimit:10;" d="M 258.800781 117.484375 L 249.035156 101.40625 "/>
<path style="fill:none;stroke-width:1.2;stroke-linecap:butt;stroke-linejoin:miter;stroke:rgb(0%,0%,0%);stroke-opacity:1;stroke-miterlimit:10;" d="M 252.542969 96.523438 L 229.03125 97.042969 "/>
<path style="fill:none;stroke-width:1.2;stroke-linecap:butt;stroke-linejoin:miter;stroke:rgb(0%,0%,0%);stroke-opacity:1;stroke-miterlimit:10;" d="M 229.03125 97.042969 L 217.726562 117.667969 "/>
<path style="fill:none;stroke-width:1.2;stroke-linecap:butt;stroke-linejoin:miter;stroke:rgb(0%,0%,0%);stroke-opacity:1;stroke-miterlimit:10;" d="M 232.753906 101.765625 L 223.710938 118.265625 "/>
</g>
</svg>

<svg xmlns="http://www.w3.org/2000/svg" xmlns:xlink="http://www.w3.org/1999/xlink" width="300pt" height="300pt" viewBox="0 0 300 300"><defs><symbol overflow="visible"><path d="M.453 1.594v-7.938h4.5v7.938zm.5-.5h3.5v-6.938h-3.5zm0 0"/></symbol><symbol overflow="visible" id="a"><path d="M.89-6.563H2.08l2.906 5.485v-5.484h.86V0H4.656L1.75-5.484V0H.89zm0 0"/></symbol><symbol overflow="visible" id="b"><path d="M3.547-5.953c-.65 0-1.164.242-1.547.72-.375.48-.563 1.13-.563 1.952 0 .835.188 1.49.563 1.967.383.48.898.72 1.547.72.644 0 1.156-.24 1.53-.72.376-.476.564-1.132.564-1.968 0-.822-.187-1.474-.562-1.954-.375-.477-.887-.72-1.53-.72zm0-.734c.914 0 1.648.312 2.203.937.55.617.828 1.438.828 2.47 0 1.042-.277 1.87-.828 2.483-.555.617-1.29.922-2.203.922-.93 0-1.668-.305-2.22-.922C.774-1.41.5-2.237.5-3.28c0-1.033.273-1.853.828-2.47.55-.625 1.29-.938 2.22-.938zm0 0"/></symbol><symbol overflow="visible" id="c"><path d="M.89-6.563h.876v2.688H5v-2.688h.89V0H5v-3.125H1.766V0H.89zm0 0"/></symbol><symbol overflow="visible" id="d"><path d="M.89-6.563h3.766v.75h-2.89v1.938h2.61v.734h-2.61V0H.89zm0 0"/></symbol></defs><g><path fill="#fff" d="M0 0h300v300H0z"/><path d="M184.72 220.258l-23.51.52M196.023 199.633l-11.304 20.625" stroke-width="1.2" stroke="#000" stroke-miterlimit="10" fill="none"/><path d="M149 200.676m1.09 2.797l.89-.54m.196 3.337l1.785-1.083m-.694 3.88l2.672-1.626m-1.583 4.42l3.563-2.165m-2.477 4.96l4.458-2.706m-3.367 5.503l5.345-3.25m-4.258 6.043l6.238-3.785m-5.195 6.474l7.098-4.31" stroke="#000" stroke-miterlimit="10" fill="none"/><path d="M149 200.676l-13.395 19.328M149 200.676l11.305-20.62M134.762 181.965L149 200.675M135.605 220.004l-22.523-6.77M113.082 213.234l-.262-11.754" stroke-width="1.2" stroke="#000" stroke-miterlimit="10" fill="none"/><path d="M112.82 201.48l-.257-11.753M112.563 189.727l11.097-3.883" stroke-width="1.2" stroke="#00f" stroke-miterlimit="10" fill="none"/><path d="M123.66 185.844l11.102-3.88" stroke-width="1.2" stroke="#000" stroke-miterlimit="10" fill="none"/><path d="M112.563 189.727l-9.665-6.7" stroke-width="1.2" stroke="#00f" stroke-miterlimit="10" fill="none"/><path d="M102.898 183.027l-9.664-6.7" stroke-width="1.2" stroke="#000" stroke-miterlimit="10" fill="none"/><path d="M109.563 184.227h7v11h-7zm0 0" fill="#fff"/><use xlink:href="#a" x="109.563" y="192.89" fill="#00f"/><path d="M92.05 173.824l-10.632 5.02" stroke-width="1.2" stroke="#000" stroke-miterlimit="10" fill="none"/><path d="M81.418 178.844l-10.633 5.023" stroke-width="1.2" stroke="#f00" stroke-miterlimit="10" fill="none"/><path d="M94.414 178.828l-10.633 5.02" stroke-width="1.2" stroke="#000" stroke-miterlimit="10" fill="none"/><path d="M83.78 183.848l-10.632 5.02" stroke-width="1.2" stroke="#f00" stroke-miterlimit="10" fill="none"/><path d="M93.234 176.328l.97-11.72" stroke-width="1.2" stroke="#000" stroke-miterlimit="10" fill="none"/><path d="M94.203 164.61l.97-11.72" stroke-width="1.2" stroke="#00f" stroke-miterlimit="10" fill="none"/><path d="M63.965 180.867h8v11h-8zm0 0" fill="#fff"/><use xlink:href="#b" x="63.965" y="189.53" fill="#f00"/><path d="M95.172 152.89l-9.664-6.7" stroke-width="1.2" stroke="#00f" stroke-miterlimit="10" fill="none"/><path d="M85.508 146.19l-9.664-6.698" stroke-width="1.2" stroke="#000" stroke-miterlimit="10" fill="none"/><path d="M88.172 147.39h14v11h-14zm0 0" fill="#fff"/><g fill="#00f"><use xlink:href="#a" x="88.172" y="156.054"/><use xlink:href="#c" x="95.149" y="156.054"/></g><path d="M75.844 139.492l1.937-23.437M70.523 136.695l1.55-18.75M54.578 149.53l21.266-10.038M77.78 116.055L58.454 102.66M58.453 102.66L37.187 112.7M58.69 108.668l-17.014 8.03M58.453 102.66l.973-11.72" stroke-width="1.2" stroke="#000" stroke-miterlimit="10" fill="none"/><path d="M59.426 90.94l.97-11.717" stroke-width="1.2" stroke="#3cc" stroke-miterlimit="10" fill="none"/><path d="M37.188 112.7l-1.938 23.437M35.25 136.137l19.328 13.394M40.336 132.926l15.46 10.72" stroke-width="1.2" stroke="#000" stroke-miterlimit="10" fill="none"/><path d="M57.395 73.723h6v11h-6zm0 0" fill="#fff"/><use xlink:href="#d" x="57.395" y="82.386" fill="#3cc"/><path d="M160.305 180.055l11.757-.262" stroke-width="1.2" stroke="#000" stroke-miterlimit="10" fill="none"/><path d="M172.063 179.793l11.753-.258M183.816 179.535l6.106 10.047" stroke-width="1.2" stroke="#00f" stroke-miterlimit="10" fill="none"/><path d="M189.922 189.582l6.1 10.05" stroke-width="1.2" stroke="#000" stroke-miterlimit="10" fill="none"/><path d="M183.816 179.535l5.653-10.312" stroke-width="1.2" stroke="#00f" stroke-miterlimit="10" fill="none"/><path d="M189.47 169.223l5.65-10.313" stroke-width="1.2" stroke="#000" stroke-miterlimit="10" fill="none"/><path d="M180.816 174.035h7v11h-7zm0 0" fill="#fff"/><use xlink:href="#a" x="180.816" y="182.698" fill="#00f"/><path d="M197.484 157.477l-6.1-10.05" stroke-width="1.2" stroke="#000" stroke-miterlimit="10" fill="none"/><path d="M191.383 147.426l-6.106-10.05" stroke-width="1.2" stroke="#f00" stroke-miterlimit="10" fill="none"/><path d="M192.754 160.348l-6.102-10.05" stroke-width="1.2" stroke="#000" stroke-miterlimit="10" fill="none"/><path d="M186.652 150.297l-6.105-10.05" stroke-width="1.2" stroke="#f00" stroke-miterlimit="10" fill="none"/><path d="M195.12 158.91l11.755-.258" stroke-width="1.2" stroke="#000" stroke-miterlimit="10" fill="none"/><path d="M206.875 158.652l11.758-.26" stroke-width="1.2" stroke="#f00" stroke-miterlimit="10" fill="none"/><path d="M174.914 133.313h8v11h-8zm0 0" fill="#fff"/><use xlink:href="#b" x="174.914" y="141.976" fill="#f00"/><path d="M218.633 158.39l5.652-10.312" stroke-width="1.2" stroke="#f00" stroke-miterlimit="10" fill="none"/><path d="M224.285 148.078l5.65-10.312" stroke-width="1.2" stroke="#000" stroke-miterlimit="10" fill="none"/><path d="M214.633 152.89h8v11h-8zm0 0" fill="#fff"/><use xlink:href="#b" x="214.633" y="161.554" fill="#f00"/><path d="M229.934 137.766l23.51-.52M232.164 132.184l18.81-.418M217.727 117.668l12.207 20.098M253.445 137.246l11.305-20.62M264.75 116.625l-12.207-20.102M258.8 117.484l-9.765-16.078M252.543 96.523l-23.512.52M229.03 97.043l-11.303 20.625M232.754 101.766l-9.043 16.5" stroke-width="1.2" stroke="#000" stroke-miterlimit="10" fill="none"/></g></svg>
